!!!OTL: Winterleid oder Mass in allen Dingen
!!!ARE: Europa, Mitteleuropa, Deutschland
!!!SCT: A0152
!!!YEM: Copyright 1995, estate of Helmut Schaffrath.
**kern
*ICvox
*Ivox
!! Mixed meters:  4/2; 6/2
*M6/2
*k[b-e-]
*g:
{2r
2g
2g
2g
=1
1b-
1a
=2
2g
2f#
1g
2r}
{2cc
=3
*M4/2
2b-
2a
2g
2g
=4
1a
1b-}
=5
{2r
2a
2g
2fn
=6
1e
1a
=7
*M6/2
2b-
2cc
1dd
2r}
{2dd
=8
*M4/2
2dd
2dd
2cc
2b-
=9
1a
1g}
==
!!!AGN: Romanze, Ballade, Lied
!! Souterliedekens 1540 ad Ps. 25.
!!!ONB: ESAC (Essen Associative Code) Database: ALTDEU
!!!AMT: irregular
!!!AIN: vox
!!!EED: Helmut Schaffrath
!!!EEV: 1.0
*-
